X: 40472
T: Tom's
R: slip jig
M: 9/8
K: Gmajor
|:B2g edc BAG|AGA B2A BGE|G2g edc BAG|AGA B2A G2A:|
|:BAB d2c BAG|AGA BcA BGE|GAB d2c BAG|AGA cBA G2A:|

